X: 11527
T: Eddie Moloney's Favourite
R: reel
M: 4/4
K: Edorian
B2GB eBGB|A2FA DAFA|B2gB eBg2|Bd (3cBA GEEd|
B2gB eBgB|A2FA DAFA|dBBA B2 (3cBA|(3Bcd BA Geef||
g2ef gfed|(3Bcd BA Geef|geef (3gfe fd|Beed Beef|
g2fa gfed|Bd (3cBA GEAG|EDEF G2GA|(3Bcd ef gfed||

